packages/vibrant-icons/assets/icons/Strikethrogh/Fill.svg

<svg width="24" height="24" viewBox="0 0 24 24" fill="none" xmlns="http://www.w3.org/2000/svg">
<path d="M12 2.4502C8.04467 2.4502 5.44995 5.18815 5.44995 7.7502C5.44995 9.02942 5.94642 10.0777 6.72803 10.8999H2V13.0999H10.9781C11.2492 13.1674 11.5238 13.2277 11.8004 13.2811C13.3218 13.5752 14.6061 13.925 15.4954 14.4423C16.3304 14.928 16.7 15.4801 16.7 16.2502C16.7 17.1501 16.3094 17.907 15.5517 18.4698C14.77 19.0505 13.5524 19.4502 11.9234 19.4502C10.6084 19.4502 9.35747 18.9811 8.44912 18.2579C7.53524 17.5302 7.04995 16.6205 7.04995 15.7502H4.94995C4.94995 17.4242 5.87095 18.8894 7.14106 19.9007C8.41671 20.9164 10.1275 21.5502 11.9234 21.5502C13.8709 21.5502 15.5666 21.0748 16.804 20.1556C18.0655 19.2184 18.8 17.8503 18.8 16.2502C18.8 14.852 18.1635 13.8313 17.2464 13.0999H22V10.8999H10.8979C10.0241 10.6336 9.28592 10.2886 8.72825 9.87344C7.94249 9.28852 7.54995 8.60023 7.54995 7.7502C7.54995 6.5824 8.95523 4.5502 12 4.5502C14.612 4.5502 16.25 6.25505 16.25 7.80599H18.35C18.35 4.74534 15.3879 2.4502 12 2.4502Z" fill="#0C0C0C"/>
</svg>

<svg xmlns="http://www.w3.org/2000/svg" width="24" height="24" fill="none"><path fill="#0C0C0C" d="M12 2.45c-3.955 0-6.55 2.738-6.55 5.3 0 1.28.496 2.328 1.278 3.15H2v2.2h8.978q.407.101.822.181c1.522.294 2.806.644 3.695 1.161.835.486 1.205 1.038 1.205 1.808 0 .9-.39 1.657-1.148 2.22-.782.58-2 .98-3.629.98-1.315 0-2.566-.469-3.474-1.192-.914-.728-1.399-1.637-1.399-2.508h-2.1c0 1.674.92 3.14 2.191 4.15 1.276 1.016 2.986 1.65 4.782 1.65 1.948 0 3.644-.475 4.881-1.394 1.262-.938 1.996-2.306 1.996-3.906 0-1.398-.637-2.419-1.554-3.15H22v-2.2H10.898c-.874-.266-1.612-.611-2.17-1.027C7.942 9.29 7.55 8.6 7.55 7.75c0-1.168 1.405-3.2 4.45-3.2 2.612 0 4.25 1.705 4.25 3.256h2.1c0-3.06-2.962-5.356-6.35-5.356"/></svg>
